tools/download-figma-icons/icons/outlined-large/trash.svg

<svg width="64" height="64" viewBox="0 0 64 64" fill="none" xmlns="http://www.w3.org/2000/svg">
<path fill-rule="evenodd" clip-rule="evenodd" d="M9.82517 14L11.6352 10H22.5002H39.5002H50.3662L52.1752 14H9.82517ZM24.0002 3.344C24.0002 3.154 24.1542 3 24.3452 3H37.6562C37.8462 3 38.0002 3.154 38.0002 3.344V7H24.0002V3.344ZM55.8672 14.882L52.7012 7.882C52.4582 7.345 51.9232 7 51.3342 7H41.0002V3.344C41.0002 1.5 39.5002 0 37.6562 0H24.3452C22.5002 0 21.0002 1.5 21.0002 3.344V7H10.6672C10.0782 7 9.54317 7.345 9.30117 7.882L6.13417 14.882C5.92317 15.346 5.96317 15.885 6.23917 16.313C6.51517 16.741 6.99017 17 7.50017 17H54.5002C55.0102 17 55.4842 16.741 55.7612 16.313C56.0372 15.885 56.0772 15.346 55.8672 14.882ZM51.334 20C50.506 20 49.834 20.672 49.834 21.5V57.878C49.834 59.6 48.48 61 46.815 61H15.186C13.521 61 12.167 59.6 12.167 57.878V21.5C12.167 20.672 11.495 20 10.667 20C9.83897 20 9.16697 20.672 9.16697 21.5V57.878C9.16697 61.254 11.867 64 15.186 64H46.815C50.134 64 52.834 61.254 52.834 57.878V21.5C52.834 20.672 52.162 20 51.334 20ZM32.5 27.8848V50.8848C32.5 51.7128 31.828 52.3848 31 52.3848C30.172 52.3848 29.5 51.7128 29.5 50.8848V27.8848C29.5 27.0568 30.172 26.3848 31 26.3848C31.828 26.3848 32.5 27.0568 32.5 27.8848ZM42.667 50.8848V27.8848C42.667 27.0568 41.995 26.3848 41.167 26.3848C40.339 26.3848 39.667 27.0568 39.667 27.8848V50.8848C39.667 51.7128 40.339 52.3848 41.167 52.3848C41.995 52.3848 42.667 51.7128 42.667 50.8848ZM22.334 27.8848V50.8848C22.334 51.7128 21.662 52.3848 20.834 52.3848C20.006 52.3848 19.334 51.7128 19.334 50.8848V27.8848C19.334 27.0568 20.006 26.3848 20.834 26.3848C21.662 26.3848 22.334 27.0568 22.334 27.8848Z" fill="black"/>
</svg>

<svg width="64" height="64" viewBox="0 0 64 64" fill="none" xmlns="http://www.w3.org/2000/svg"><path fill-rule="evenodd" clip-rule="evenodd" d="m9.825 14 1.81-4h38.731l1.81 4H9.825ZM24 3.344c0-.19.154-.344.345-.344h13.311c.19 0 .344.154.344.344V7H24V3.344Zm31.867 11.538-3.166-7A1.5 1.5 0 0 0 51.334 7H41V3.344C41 1.5 39.5 0 37.656 0h-13.31A3.348 3.348 0 0 0 21 3.344V7H10.667c-.589 0-1.124.345-1.366.882l-3.167 7A1.497 1.497 0 0 0 7.5 17h47a1.502 1.502 0 0 0 1.367-2.118ZM51.334 20a1.5 1.5 0 0 0-1.5 1.5v36.378C49.834 59.6 48.48 61 46.815 61H15.186c-1.665 0-3.019-1.4-3.019-3.122V21.5a1.5 1.5 0 0 0-3 0v36.378c0 3.376 2.7 6.122 6.019 6.122h31.629c3.319 0 6.019-2.746 6.019-6.122V21.5a1.5 1.5 0 0 0-1.5-1.5ZM32.5 27.885v23a1.5 1.5 0 0 1-3 0v-23a1.5 1.5 0 0 1 3 0Zm10.167 23v-23a1.5 1.5 0 0 0-3 0v23a1.5 1.5 0 0 0 3 0Zm-20.333-23v23a1.5 1.5 0 0 1-3 0v-23a1.5 1.5 0 0 1 3 0Z" fill="currentColor"/></svg>
